X:2514
T:Bellingham Boat
C:anon.
O:England
S:Charlton Mem.Tune Book
Z:C.G.P
F:http://abc.musicaviva.com/tunes/england/bellingham-boat/bellingham-boat-1.abc
%Posted at abcusers Jan 2nd 2001 by Johnny Adams.
M:6/8
L:1/8
K:G
Bc|d3 cAF|AGF G2B|dcc cBB|BAA ABc|d3 cAF|
AGF G2c|BdB cAF|G3 G::B-c|d2d def|g3 gfe|dbb caa|
Bgg ABc|d2d def|g3 gfe|afd ge^c|d3 d:|
W:
W:
W:  From Musica Viva - http://www.musicaviva.com
W:  the Internet center for free sheet music downloads.
